app/src/assets/MapIcon.svg

<?xml version="1.0" encoding="UTF-8" standalone="no"?>
<svg
   width="73"
   height="73"
   viewBox="0 0 73 73"
   fill="none"
   version="1.1"
   id="svg1"
   sodipodi:docname="MapIcon.svg"
   inkscape:version="1.3.2 (091e20ef0f, 2023-11-25)"
   xmlns:inkscape="http://www.inkscape.org/namespaces/inkscape"
   xmlns:sodipodi="http://sodipodi.sourceforge.net/DTD/sodipodi-0.dtd"
   xmlns="http://www.w3.org/2000/svg"
   xmlns:svg="http://www.w3.org/2000/svg">
  <defs
     id="defs1" />
  <sodipodi:namedview
     id="namedview1"
     pagecolor="#ffffff"
     bordercolor="#000000"
     borderopacity="0.25"
     inkscape:showpageshadow="2"
     inkscape:pageopacity="0.0"
     inkscape:pagecheckerboard="0"
     inkscape:deskcolor="#d1d1d1"
     inkscape:zoom="11"
     inkscape:cx="36.454545"
     inkscape:cy="36.5"
     inkscape:window-width="1920"
     inkscape:window-height="1011"
     inkscape:window-x="0"
     inkscape:window-y="0"
     inkscape:window-maximized="1"
     inkscape:current-layer="svg1" />
  <path
     d="M45.625 57.7917L27.375 51.3737V15.2083L45.625 21.6263M62.3542 9.125H61.8675L45.625 15.5125L27.375 9.125L10.22 14.9042C9.58125 15.1171 9.125 15.6646 9.125 16.3642V62.3542C9.125 62.7575 9.28523 63.1443 9.57044 63.4296C9.85565 63.7148 10.2425 63.875 10.6458 63.875C10.7979 63.875 10.9804 63.875 11.1325 63.7837L27.375 57.4875L45.625 63.875L62.78 58.0958C63.4188 57.7917 63.875 57.3354 63.875 56.6358V10.6458C63.875 10.2425 63.7148 9.85565 63.4296 9.57044C63.1443 9.28523 62.7575 9.125 62.3542 9.125Z"
     fill="#FE0E0E"
     id="path1" />
  <path
     style="fill:#ffffff;fill-opacity:0;stroke-width:0.0909091"
     d="M 10.045455,63.689851 C 9.7111199,63.541255 9.4078435,63.221074 9.2787829,62.880445 9.2110217,62.701604 9.1818182,55.616221 9.1818182,39.354798 c 0,-25.367294 -0.037608,-23.62296 0.5194196,-24.091668 0.1947601,-0.16388 2.7307722,-1.054994 8.9793672,-3.155207 l 8.707953,-2.9268261 9.1218,3.1929331 9.121801,3.192934 8.145514,-3.203246 c 7.836067,-3.081555 8.164383,-3.2016806 8.642235,-3.1620534 0.526646,0.043673 0.844029,0.221111 1.165384,0.651524 l 0.187435,0.2510454 0.02324,23.425611 c 0.02252,22.693928 0.01796,23.435537 -0.145974,23.743339 -0.09307,0.174749 -0.348982,0.429137 -0.568697,0.565308 -0.231235,0.143309 -3.993038,1.454634 -8.931916,3.113572 l -8.532434,2.86599 -9.121065,-3.193058 -9.121064,-3.193057 -1.573774,0.611027 c -11.800657,4.581672 -14.940937,5.774725 -15.191811,5.771658 -0.16008,-0.002 -0.413781,-0.05811 -0.563781,-0.124773 z M 45.636364,39.695931 V 21.57368 l -9.090746,-3.195931 c -4.999911,-1.757762 -9.111274,-3.195931 -9.136363,-3.195931 -0.02509,0 -0.04562,8.154212 -0.04562,18.120471 V 51.42276 l 9.068182,3.1931 c 4.9875,1.756205 9.098864,3.195175 9.136364,3.197711 0.0375,0.0025 0.06818,-8.150402 0.06818,-18.11764 z"
     id="path2" />
  <path
     style="fill:#de3f3f;fill-opacity:1;stroke-width:0.0909091"
     d="M 10.045455,63.689851 C 9.7111199,63.541255 9.4078435,63.221074 9.2787829,62.880445 9.2110217,62.701604 9.1818182,55.616221 9.1818182,39.354798 c 0,-25.367294 -0.037608,-23.62296 0.5194196,-24.091668 0.1947601,-0.16388 2.7307722,-1.054994 8.9793672,-3.155207 l 8.707953,-2.9268261 9.1218,3.1929331 9.121801,3.192934 8.145514,-3.203246 c 7.836067,-3.081555 8.164383,-3.2016806 8.642235,-3.1620534 0.526646,0.043673 0.844029,0.221111 1.165384,0.651524 l 0.187435,0.2510454 0.02324,23.425611 c 0.02252,22.693928 0.01796,23.435537 -0.145974,23.743339 -0.09307,0.174749 -0.348982,0.429137 -0.568697,0.565308 -0.231235,0.143309 -3.993038,1.454634 -8.931916,3.113572 l -8.532434,2.86599 -9.121065,-3.193058 -9.121064,-3.193057 -1.573774,0.611027 c -11.800657,4.581672 -14.940937,5.774725 -15.191811,5.771658 -0.16008,-0.002 -0.413781,-0.05811 -0.563781,-0.124773 z M 45.636364,39.695931 V 21.57368 l -9.090746,-3.195931 c -4.999911,-1.757762 -9.111274,-3.195931 -9.136363,-3.195931 -0.02509,0 -0.04562,8.154212 -0.04562,18.120471 V 51.42276 l 9.068182,3.1931 c 4.9875,1.756205 9.098864,3.195175 9.136364,3.197711 0.0375,0.0025 0.06818,-8.150402 0.06818,-18.11764 z"
     id="path3" />
</svg>

<?xml version="1.0" encoding="UTF-8"?>
<svg id="svg1" width="73" height="73" fill="none" version="1.1" viewBox="0 0 73 73" xmlns="http://www.w3.org/2000/svg">
 <path id="path1" d="m45.625 57.792-18.25-6.418v-36.165l18.25 6.418m16.729-12.501h-0.4867l-16.242 6.3875-18.25-6.3875-17.155 5.7792c-0.63875 0.2129-1.095 0.7604-1.095 1.46v45.99c0 0.4033 0.16023 0.7901 0.44544 1.0754 0.28521 0.2852 0.67206 0.4454 1.0754 0.4454 0.1521 0 0.3346 0 0.4867-0.0913l16.242-6.2962 18.25 6.3875 17.155-5.7792c0.6388-0.3041 1.095-0.7604 1.095-1.46v-45.99c0-0.4033-0.1602-0.79015-0.4454-1.0754-0.2853-0.28521-0.6721-0.44544-1.0754-0.44544z" fill="#fe0e0e"/>
 <path id="path2" d="m10.045 63.69c-0.33434-0.1486-0.63761-0.46878-0.76667-0.80941-0.067761-0.17884-0.096965-7.2642-0.096965-23.526 0-25.367-0.037608-23.623 0.51942-24.092 0.19476-0.16388 2.7308-1.055 8.9794-3.1552l8.708-2.9268 18.244 6.3859 8.1455-3.2032c7.8361-3.0816 8.1644-3.2017 8.6422-3.1621 0.52665 0.043673 0.84403 0.22111 1.1654 0.65152l0.18744 0.25105 0.02324 23.426c0.02252 22.694 0.01796 23.436-0.14597 23.743-0.09307 0.17475-0.34898 0.42914-0.5687 0.56531-0.23124 0.14331-3.993 1.4546-8.9319 3.1136l-8.5324 2.866-18.242-6.3861-1.5738 0.61103c-11.801 4.5817-14.941 5.7747-15.192 5.7717-0.16008-2e-3 -0.41378-0.05811-0.56378-0.12477zm35.591-23.994v-18.122l-9.0907-3.1959c-4.9999-1.7578-9.1113-3.1959-9.1364-3.1959-0.02509 0-0.04562 8.1542-0.04562 18.12v18.12l9.0682 3.1931c4.9875 1.7562 9.0989 3.1952 9.1364 3.1977 0.0375 0.0025 0.06818-8.1504 0.06818-18.118z" fill-opacity="0" stroke-width=".090909"/>
 <path id="path3" d="m10.045 63.69c-0.33434-0.1486-0.63761-0.46878-0.76667-0.80941-0.067761-0.17884-0.096965-7.2642-0.096965-23.526 0-25.367-0.037608-23.623 0.51942-24.092 0.19476-0.16388 2.7308-1.055 8.9794-3.1552l8.708-2.9268 18.244 6.3859 8.1455-3.2032c7.8361-3.0816 8.1644-3.2017 8.6422-3.1621 0.52665 0.043673 0.84403 0.22111 1.1654 0.65152l0.18744 0.25105 0.02324 23.426c0.02252 22.694 0.01796 23.436-0.14597 23.743-0.09307 0.17475-0.34898 0.42914-0.5687 0.56531-0.23124 0.14331-3.993 1.4546-8.9319 3.1136l-8.5324 2.866-18.242-6.3861-1.5738 0.61103c-11.801 4.5817-14.941 5.7747-15.192 5.7717-0.16008-2e-3 -0.41378-0.05811-0.56378-0.12477zm35.591-23.994v-18.122l-9.0907-3.1959c-4.9999-1.7578-9.1113-3.1959-9.1364-3.1959-0.02509 0-0.04562 8.1542-0.04562 18.12v18.12l9.0682 3.1931c4.9875 1.7562 9.0989 3.1952 9.1364 3.1977 0.0375 0.0025 0.06818-8.1504 0.06818-18.118z" fill="#de3f3f" stroke-width=".090909"/>
</svg>
